assets/Man in tuxedo/Default/Flat/man_in_tuxedo_flat_default.svg

<svg width="32" height="32" viewBox="0 0 32 32" fill="none" xmlns="http://www.w3.org/2000/svg">
<path d="M16.005 15.5C13.0708 15.5 10.4029 16.6486 8.42889 18.5217C6.31744 20.5252 6 23.3577 6 26.5V30H8H23.5H26V26.5C26 23.2363 25.5817 20.3068 23.3284 18.2932C21.384 16.5556 18.8179 15.5 16.005 15.5Z" fill="#533566"/>
<path d="M15.9798 29.9902H16.0202C20.7341 27.8002 21.4089 22.4902 21.4996 20.9402C21.5097 20.7102 21.3284 20.5102 21.0967 20.5102H20.5629C20.442 20.5102 20.3413 20.4102 20.3513 20.2902C20.3579 19.9333 20.3559 19.2838 20.3538 18.5617C20.3526 18.1719 20.3513 17.7495 20.3513 17.3502C20.3513 16.7302 19.9283 16.1902 19.334 16.0002C18.2865 15.6702 17.1684 15.4902 16.0101 15.4902H15.9899C14.8316 15.4902 13.7135 15.6702 12.666 16.0002C12.0717 16.1902 11.6487 16.7302 11.6487 17.3502C11.6487 17.7503 11.6474 18.1727 11.6462 18.5633C11.6441 19.2856 11.6421 19.9333 11.6487 20.2902C11.6587 20.4102 11.558 20.5102 11.4371 20.5102H10.9033C10.6716 20.5102 10.4903 20.7102 10.5004 20.9402C10.5911 22.4902 11.2659 27.8002 15.9798 29.9902Z" fill="#321B41"/>
<path d="M9 18C6.57 20.03 5.00006 23.09 5.01006 26.5L5.03006 30H9V18Z" fill="#321B41"/>
<path d="M23 18V30H27L26.99 26.4898C26.99 23.0798 25.45 20.02 23 18Z" fill="#321B41"/>
<path d="M13.25 16.5302V21.7502C13.25 24.7302 14.22 27.6202 16 30.0002C17.79 27.6202 18.75 24.6702 18.75 21.6902V16.4702L13.25 16.5302Z" fill="#D3D3D3"/>
<path d="M18.7401 14.5H16H13.25V17.063C13.25 18.3543 13.796 19.5767 14.769 20.4441C14.8583 20.5328 15.0072 20.5131 15.0866 20.4047L16 18.6796L16.9134 20.4047C16.9829 20.5131 17.1318 20.523 17.231 20.4441C18.194 19.5865 18.75 18.3543 18.75 17.063V14.5H18.7401Z" fill="#F4F4F4"/>
<path d="M16 19C14.8932 19 14 18.1724 14 17.1469V14.8441C14 13.8276 14.8932 13 16 13C17.1068 13 18 13.8276 18 14.8531V17.1559C17.9903 18.1724 17.0971 19 16 19Z" fill="#FCB100"/>
<path d="M15.99 18.04C15.743 18.04 15.5238 18.1595 15.3872 18.3437L14.23 17.5401C14.01 17.3901 13.7 17.5501 13.7 17.8201V19.7501C13.7 20.0201 14.01 20.1901 14.23 20.0301L15.3855 19.2341C15.522 19.4196 15.7419 19.54 15.99 19.54C16.2462 19.54 16.4724 19.4116 16.6077 19.2156L17.79 20.0301C18.01 20.1901 18.32 20.0201 18.32 19.7501V17.8201C18.32 17.5501 18.01 17.3901 17.79 17.5401L16.6061 18.3622C16.4706 18.1675 16.2452 18.04 15.99 18.04Z" fill="#321B41"/>
<path d="M16.01 23.2798C16.2862 23.2798 16.51 23.0559 16.51 22.7798C16.51 22.5036 16.2862 22.2798 16.01 22.2798C15.7339 22.2798 15.51 22.5036 15.51 22.7798C15.51 23.0559 15.7339 23.2798 16.01 23.2798Z" fill="#321B41"/>
<path d="M16.01 26.4297C16.2862 26.4297 16.51 26.2058 16.51 25.9297C16.51 25.6535 16.2862 25.4297 16.01 25.4297C15.7339 25.4297 15.51 25.6535 15.51 25.9297C15.51 26.2058 15.7339 26.4297 16.01 26.4297Z" fill="#321B41"/>
<path d="M12.7701 10.5899C12.7701 11.5122 12.0224 12.2599 11.1001 12.2599C10.1777 12.2599 9.43005 11.5122 9.43005 10.5899C9.43005 9.66761 10.1777 8.91992 11.1001 8.91992C12.0224 8.91992 12.7701 9.66761 12.7701 10.5899Z" fill="#FDBB11"/>
<path d="M22.56 10.5899C22.56 11.5122 21.8123 12.2599 20.89 12.2599C19.9677 12.2599 19.22 11.5122 19.22 10.5899C19.22 9.66761 19.9677 8.91992 20.89 8.91992C21.8123 8.91992 22.56 9.66761 22.56 10.5899Z" fill="#FDBB11"/>
<path d="M15.5553 3C12.7685 3 10.5647 5.40719 10.7623 8.24748L11.1576 13.9381C11.3256 15.7209 12.7092 17 14.3892 17H17.6108C19.2908 17 20.6744 15.7209 20.8424 13.9381L21.2377 8.24748C21.4353 5.41727 19.2315 3 16.4447 3H15.5553V3Z" fill="#FFC83D"/>
<path d="M12.3099 10.5016C12.4599 9.89164 13.0199 9.43164 13.6799 9.43164C14.3699 9.43164 14.9399 9.92164 15.0699 10.5716C15.0999 10.7116 14.9899 10.8416 14.8399 10.8416H12.5799C12.3999 10.8416 12.2599 10.6716 12.3099 10.5016Z" fill="white"/>
<path d="M19.9 10.5016C19.75 9.89164 19.19 9.43164 18.53 9.43164C17.84 9.43164 17.27 9.92164 17.14 10.5716C17.11 10.7116 17.22 10.8416 17.37 10.8416H19.63C19.81 10.8416 19.94 10.6816 19.9 10.5016Z" fill="white"/>
<path d="M12.98 10.6117C12.98 10.1117 13.39 9.70166 13.89 9.70166C14.39 9.70166 14.79 10.1017 14.79 10.6017C14.79 10.6917 14.78 10.7717 14.76 10.8517H13.01C12.99 10.7717 12.98 10.6917 12.98 10.6117Z" fill="#7D4533"/>
<path d="M19.2299 10.6117C19.2299 10.1117 18.8199 9.70166 18.3199 9.70166C17.8199 9.70166 17.4199 10.1017 17.4199 10.6117C17.4199 10.6917 17.4299 10.7717 17.4499 10.8517H19.1999C19.2199 10.7717 19.2299 10.6917 19.2299 10.6117Z" fill="#7D4533"/>
<path d="M13.89 10.0815C14.18 10.0815 14.41 10.3115 14.41 10.6015C14.41 10.6915 14.38 10.7715 14.35 10.8415H13.43C13.39 10.7715 13.37 10.6915 13.37 10.6015C13.37 10.3115 13.6 10.0815 13.89 10.0815Z" fill="black"/>
<path d="M18.3199 10.0815C18.0299 10.0815 17.7999 10.3115 17.7999 10.6015C17.7999 10.6915 17.8299 10.7715 17.8599 10.8415H18.7799C18.8199 10.7715 18.8399 10.6915 18.8399 10.6015C18.8399 10.3115 18.6099 10.0815 18.3199 10.0815Z" fill="black"/>
<path d="M13.7399 10.2518C13.7399 10.3402 13.6683 10.4118 13.5799 10.4118C13.4916 10.4118 13.4199 10.3402 13.4199 10.2518C13.4199 10.1634 13.4916 10.0918 13.5799 10.0918C13.6683 10.0918 13.7399 10.1634 13.7399 10.2518Z" fill="white"/>
<path d="M18.2 10.2518C18.2 10.3402 18.1284 10.4118 18.04 10.4118C17.9516 10.4118 17.88 10.3402 17.88 10.2518C17.88 10.1634 17.9516 10.0918 18.04 10.0918C18.1284 10.0918 18.2 10.1634 18.2 10.2518Z" fill="white"/>
<path d="M21.183 4.3917L20.7647 4.1817C20.4729 4.0317 20.2005 3.8317 19.967 3.5917L19.1499 2.7517C18.537 2.1217 17.6323 1.9117 16.8151 2.2017C16.2898 2.3917 15.7061 2.3917 15.1808 2.2017C14.4707 1.8317 13.6049 1.9817 13.0309 2.5617L12.0386 3.5817C11.8052 3.8217 11.5328 4.0217 11.2312 4.1817L10.8226 4.3917C10.0541 4.7917 9.62608 5.6617 9.78173 6.5317L10.3362 9.6617C10.3946 9.9717 10.6573 10.2017 10.9588 10.2117C10.9588 10.2117 10.9005 9.3217 10.8615 8.7517C10.8421 8.4617 10.9588 8.1717 11.1728 7.9717L11.3577 7.8017C11.6106 7.5717 11.7468 7.2417 11.7468 6.9017V6.0217C11.7468 5.7717 11.9122 5.5517 12.1457 5.4917C12.778 5.3317 14.1302 5.0517 15.998 5.0517C17.8658 5.0517 19.218 5.3317 19.8503 5.4917C20.0837 5.5517 20.2491 5.7717 20.2491 6.0217V6.9017C20.2491 7.2417 20.395 7.5717 20.6382 7.8017L20.8328 7.9817C21.0468 8.1817 21.1636 8.4617 21.1441 8.7617C21.1052 9.3317 21.0468 10.2117 21.0468 10.2117C21.3484 10.1917 21.6013 9.9717 21.6597 9.6617L22.2142 6.5317C22.3796 5.6617 21.9613 4.7917 21.183 4.3917Z" fill="#F1A11E"/>
<path d="M19.24 8.93176C19.35 9.00177 19.46 9.04177 19.58 9.04177C19.75 9.04177 19.91 8.97177 20.01 8.82177C20.2 8.58177 20.15 8.23177 19.91 8.04177C19.88 8.01177 19.04 7.37177 17.82 7.52177C17.51 7.56177 17.29 7.84177 17.33 8.14176C17.37 8.45177 17.64 8.67177 17.95 8.63177C18.6767 8.54456 19.1781 8.88922 19.2358 8.92891C19.2377 8.93018 19.24 8.93176 19.24 8.93176Z" fill="#D37034"/>
<path d="M12.19 8.82174C12.29 8.96174 12.46 9.04173 12.63 9.04173C12.74 9.04173 12.86 9.00173 12.96 8.93173C12.98 8.91173 13.49 8.54174 14.25 8.63174C14.56 8.66174 14.83 8.44173 14.87 8.14173C14.9 7.83173 14.68 7.56173 14.38 7.52173C13.17 7.38173 12.32 8.01173 12.29 8.04173C12.05 8.23173 12 8.57174 12.19 8.82174Z" fill="#D37034"/>
<path d="M15.6541 10.2897L15.1583 12.0282C15.0554 12.384 15.2986 12.75 15.6447 12.75H16.3743C16.7204 12.75 16.9636 12.384 16.8607 12.0282L16.365 10.2897C16.2621 9.90342 15.7663 9.90342 15.6541 10.2897Z" fill="#ED9200"/>
<path d="M16.0005 13.7057C15.45 13.7057 14.9301 13.5669 14.4918 13.3212C14.3389 13.2358 14.186 13.4174 14.2777 13.5669C14.6447 14.1542 15.2767 14.5493 16.0005 14.5493C16.7243 14.5493 17.3563 14.1542 17.7233 13.5669C17.8151 13.4174 17.652 13.2465 17.5093 13.3212C17.0607 13.5669 16.551 13.7057 16.0005 13.7057Z" fill="#990839"/>
</svg>

<svg xmlns="http://www.w3.org/2000/svg" width="32" height="32" fill="none"><path fill="#533566" d="M16.005 15.5a10.972 10.972 0 0 0-7.576 3.022C6.317 20.525 6 23.358 6 26.5V30h20v-3.5c0-3.264-.418-6.193-2.672-8.207a10.953 10.953 0 0 0-7.323-2.793Z"/><path fill="#321B41" d="M15.98 29.99h.04c4.714-2.19 5.389-7.5 5.48-9.05a.41.41 0 0 0-.403-.43h-.534c-.121 0-.222-.1-.212-.22.007-.357.005-1.006.003-1.728l-.003-1.212c0-.62-.423-1.16-1.017-1.35a11.053 11.053 0 0 0-3.324-.51h-.02c-1.158 0-2.277.18-3.324.51-.594.19-1.017.73-1.017 1.35l-.003 1.213c-.002.723-.004 1.37.003 1.727.01.12-.091.22-.212.22h-.534a.41.41 0 0 0-.403.43c.091 1.55.766 6.86 5.48 9.05ZM9 18c-2.43 2.03-4 5.09-3.99 8.5l.02 3.5H9V18ZM23 18v12h4l-.01-3.51c0-3.41-1.54-6.47-3.99-8.49Z"/><path fill="#D3D3D3" d="M13.25 16.53v5.22c0 2.98.97 5.87 2.75 8.25 1.79-2.38 2.75-5.33 2.75-8.31v-5.22l-5.5.06Z"/><path fill="#F4F4F4" d="M18.74 14.5h-5.49v2.563c0 1.291.546 2.514 1.519 3.381.09.089.238.07.318-.04L16 18.68l.913 1.725c.07.108.219.118.318.04a4.534 4.534 0 0 0 1.519-3.382V14.5h-.01Z"/><path fill="#FCB100" d="M16 19c-1.107 0-2-.828-2-1.853v-2.303c0-1.016.893-1.844 2-1.844s2 .828 2 1.853v2.303C17.99 18.172 17.097 19 16 19Z"/><path fill="#321B41" d="M15.99 18.04a.749.749 0 0 0-.603.304l-1.157-.804a.342.342 0 0 0-.53.28v1.93c0 .27.31.44.53.28l1.155-.796a.749.749 0 0 0 1.223-.018l1.182.814c.22.16.53-.01.53-.28v-1.93c0-.27-.31-.43-.53-.28l-1.184.822a.75.75 0 0 0-.616-.322ZM16.01 23.28a.5.5 0 1 0 0-1 .5.5 0 0 0 0 1ZM16.01 26.43a.5.5 0 1 0 0-1 .5.5 0 0 0 0 1Z"/><path fill="#FDBB11" d="M12.77 10.59a1.67 1.67 0 1 1-3.34 0 1.67 1.67 0 0 1 3.34 0ZM22.56 10.59a1.67 1.67 0 1 1-3.34 0 1.67 1.67 0 0 1 3.34 0Z"/><path fill="#FFC83D" d="M15.555 3c-2.787 0-4.99 2.407-4.793 5.247l.396 5.691C11.326 15.721 12.709 17 14.389 17h3.222c1.68 0 3.063-1.28 3.231-3.062l.396-5.69C21.435 5.417 19.232 3 16.445 3h-.89Z"/><path fill="#fff" d="M12.31 10.502c.15-.61.71-1.07 1.37-1.07.69 0 1.26.49 1.39 1.14.03.14-.08.27-.23.27h-2.26c-.18 0-.32-.17-.27-.34ZM19.9 10.502c-.15-.61-.71-1.07-1.37-1.07-.69 0-1.26.49-1.39 1.14-.03.14.08.27.23.27h2.26c.18 0 .31-.16.27-.34Z"/><path fill="#7D4533" d="M12.98 10.612c0-.5.41-.91.91-.91s.9.4.9.9c0 .09-.01.17-.03.25h-1.75a.986.986 0 0 1-.03-.24ZM19.23 10.612c0-.5-.41-.91-.91-.91s-.9.4-.9.91c0 .08.01.16.03.24h1.75c.02-.08.03-.16.03-.24Z"/><path fill="#000" d="M13.89 10.082a.516.516 0 0 1 .46.76h-.92a.516.516 0 0 1 .46-.76ZM18.32 10.082a.516.516 0 0 0-.46.76h.92a.516.516 0 0 0-.46-.76Z"/><path fill="#fff" d="M13.74 10.252a.16.16 0 1 1-.32 0 .16.16 0 0 1 .32 0ZM18.2 10.252a.16.16 0 1 1-.32 0 .16.16 0 0 1 .32 0Z"/><path fill="#F1A11E" d="m21.183 4.392-.418-.21a3.086 3.086 0 0 1-.798-.59l-.817-.84a2.212 2.212 0 0 0-2.335-.55c-.525.19-1.109.19-1.634 0-.71-.37-1.576-.22-2.15.36l-.992 1.02c-.234.24-.506.44-.808.6l-.408.21a2.015 2.015 0 0 0-1.041 2.14l.554 3.13c.059.31.321.54.623.55l-.098-1.46a.987.987 0 0 1 .312-.78l.185-.17c.253-.23.389-.56.389-.9v-.88c0-.25.165-.47.399-.53.632-.16 1.984-.44 3.852-.44 1.868 0 3.22.28 3.852.44.234.06.4.28.4.53v.88c0 .34.145.67.388.9l.195.18c.214.2.33.48.311.78l-.097 1.45a.668.668 0 0 0 .613-.55l.554-3.13a1.982 1.982 0 0 0-1.031-2.14Z"/><path fill="#D37034" d="M19.24 8.932c.11.07.22.11.34.11.17 0 .33-.07.43-.22.19-.24.14-.59-.1-.78-.03-.03-.87-.67-2.09-.52a.56.56 0 0 0 .13 1.11 1.917 1.917 0 0 1 1.29.3ZM12.19 8.822c.1.14.27.22.44.22.11 0 .23-.04.33-.11.02-.02.53-.39 1.29-.3.31.03.58-.19.62-.49a.568.568 0 0 0-.49-.62c-1.21-.14-2.06.49-2.09.52-.24.19-.29.53-.1.78Z"/><path fill="#ED9200" d="m15.654 10.29-.496 1.738c-.103.356.14.722.487.722h.73c.345 0 .589-.366.486-.722l-.496-1.738c-.103-.387-.599-.387-.71 0Z"/><path fill="#990839" d="M16 13.706c-.55 0-1.07-.14-1.508-.385-.153-.085-.306.096-.214.246.367.587.999.982 1.722.982.724 0 1.356-.395 1.723-.982.092-.15-.071-.32-.214-.246a3.118 3.118 0 0 1-1.509.385Z"/></svg>
